uploads/global/teams_01.svg

<svg height="41" viewBox="0 0 41 41" width="41" xmlns="http://www.w3.org/2000/svg"><g fill="#04de47" fill-rule="evenodd" transform="translate(9 3)"><path d="m15.6335878 1.42051282v30.54102568c-.0012533 1.176272-.9549826 2.1295165-2.1318529 2.1307692h5.684941c1.1768703-.0012527 2.1305996-.9544972 2.1318529-2.1307692v-30.54102568z" opacity=".15"/><path d="m14.9229702 4.26153846h-7.10617631c-.39246328 0-.71061762.31799263-.71061762.71025641 0 .39226379.31815434.71025641.71061762.71025641h7.10617631c.3924632 0 .7106176-.31799262.7106176-.71025641 0-.39226378-.3181544-.71025641-.7106176-.71025641z"/><path d="m19.1866759 0h-15.63358777c-1.96137484.00227009-3.55081688 1.5909042-3.55308813 3.55128205v28.41025645c.00227125 1.9603778 1.59171329 3.5490119 3.55308813 3.551282h15.63358777c1.9613749-.0022701 3.5508169-1.5909042 3.5530882-3.551282v-28.41025645c-.0022713-1.96037785-1.5917133-3.54901196-3.5530882-3.55128205zm2.1318529 31.9615385c-.0012533 1.176272-.9549826 2.1295165-2.1318529 2.1307692h-15.63358777c-1.1768703-.0012527-2.13059955-.9544972-2.13185288-2.1307692v-2.1307693h19.89729355zm-19.89729355-3.5512821v-24.85897435c.00125333-1.17627208.95498258-2.12951654 2.13185288-2.13076923h15.63358777c1.1768703.00125269 2.1305996.95449715 2.1318529 2.13076923v24.85897435z" fill-rule="nonzero"/><path d="m9.23802915 32.6717949h4.26370575c.3924633 0 .7106176-.3179927.7106176-.7102564 0-.3922638-.3181543-.7102564-.7106176-.7102564h-4.26370575c-.39246328 0-.71061763.3179926-.71061763.7102564 0 .3922637.31815435.7102564.71061763.7102564z"/></g></svg>

<?xml version="1.0" encoding="UTF-8"?>
<svg width="41px" height="41px" viewBox="0 0 41 41" version="1.1" xmlns="http://www.w3.org/2000/svg" xmlns:xlink="http://www.w3.org/1999/xlink">
    <!-- Generator: Sketch 52.4 (67378) - http://www.bohemiancoding.com/sketch -->
    <title>assets/homepage/teams_01</title>
    <desc>Created with Sketch.</desc>
    <g id="Page-1" stroke="none" stroke-width="1" fill="none" fill-rule="evenodd">
        <g id="Wunder-Careers-03-Teams" transform="translate(-40.000000, -922.000000)" fill="#04DE47">
            <g id="Enginiering" transform="translate(10.000000, 676.000000)">
                <g id="android" transform="translate(30.000000, 246.000000)">
                    <g id="Group-13" transform="translate(9.000000, 3.000000)">
                        <path d="M15.6335878,1.42051282 L15.6335878,31.9615385 C15.6323345,33.1378105 14.6786052,34.091055 13.5017349,34.0923077 L19.1866759,34.0923077 C20.3635462,34.091055 21.3172755,33.1378105 21.3185288,31.9615385 L21.3185288,1.42051282 L15.6335878,1.42051282 Z" id="Path" opacity="0.149999991"></path>
                        <path d="M14.9229702,4.26153846 L7.81679389,4.26153846 C7.42433061,4.26153846 7.10617627,4.57953109 7.10617627,4.97179487 C7.10617627,5.36405866 7.42433061,5.68205128 7.81679389,5.68205128 L14.9229702,5.68205128 C15.3154334,5.68205128 15.6335878,5.36405866 15.6335878,4.97179487 C15.6335878,4.57953109 15.3154334,4.26153846 14.9229702,4.26153846 Z" id="Path"></path>
                        <path d="M19.1866759,-9.23705556e-14 L3.55308813,-9.23705556e-14 C1.59171329,0.00227009063 0.00227124514,1.5909042 -4.26325641e-14,3.55128205 L-4.26325641e-14,31.9615385 C0.00227124514,33.9219163 1.59171329,35.5105504 3.55308813,35.5128205 L19.1866759,35.5128205 C21.1480508,35.5105504 22.7374928,33.9219163 22.7397641,31.9615385 L22.7397641,3.55128205 C22.7374928,1.5909042 21.1480508,0.00227009063 19.1866759,-9.23705556e-14 Z M21.3185288,31.9615385 C21.3172755,33.1378105 20.3635462,34.091055 19.1866759,34.0923077 L3.55308813,34.0923077 C2.37621783,34.091055 1.42248858,33.1378105 1.42123525,31.9615385 L1.42123525,29.8307692 L21.3185288,29.8307692 L21.3185288,31.9615385 Z M1.42123525,28.4102564 L1.42123525,3.55128205 C1.42248858,2.37500997 2.37621783,1.42176551 3.55308813,1.42051282 L19.1866759,1.42051282 C20.3635462,1.42176551 21.3172755,2.37500997 21.3185288,3.55128205 L21.3185288,28.4102564 L1.42123525,28.4102564 Z" id="Shape" fill-rule="nonzero"></path>
                        <path d="M9.23802915,32.6717949 L13.5017349,32.6717949 C13.8941982,32.6717949 14.2123525,32.3538022 14.2123525,31.9615385 C14.2123525,31.5692747 13.8941982,31.2512821 13.5017349,31.2512821 L9.23802915,31.2512821 C8.84556587,31.2512821 8.52741152,31.5692747 8.52741152,31.9615385 C8.52741152,32.3538022 8.84556587,32.6717949 9.23802915,32.6717949 Z" id="Path"></path>
                    </g>
                </g>
            </g>
        </g>
    </g>
</svg>
